X: 501
T: Jiang wugeng
%%abc-version 2.0
%%abcx-abcm2ps-target-version 5.9.1 (29 Sep 2008)
%%abc-creator hum2abc beta
%%abcx-conversion-date 2013/10/02 07:52:30
%%abc-edited-by Helmut Schaffrath
%%humdrum-veritas 1279482338
%%humdrum-veritas-data 554013270
%%continueall 1
%%barnumbers 0
L: 1/8
M: 2/4
K: Bb
bb2c' [I:setbarnb 1]| 
d' f' d' c' | 
d' b c' d' | 
b4 | 
f' f' f' d' | 
c'4 | 
b b a g | 
f4 | 
b gf2 | 
b d' c' b | 
g bf2 | 
g f d c | 
B2G c | 
B4 |]  



